src/assets/icons/question-circle.svg

<svg width="14" height="14" viewBox="0 0 14 14" fill="none" xmlns="http://www.w3.org/2000/svg">
<g id="question-circle">
<g clip-path="url(#clip0_156_4686)">
<path id="Vector" fill-rule="evenodd" clip-rule="evenodd" d="M7 1.16667C3.77834 1.16667 1.16667 3.77834 1.16667 7C1.16667 10.2217 3.77834 12.8333 7 12.8333C10.2217 12.8333 12.8333 10.2217 12.8333 7C12.8333 3.77834 10.2217 1.16667 7 1.16667ZM0 7C0 3.13401 3.13401 0 7 0C10.866 0 14 3.13401 14 7C14 10.866 10.866 14 7 14C3.13401 14 0 10.866 0 7ZM5.21085 3.65531C5.66687 3.19929 6.3039 2.91667 7 2.91667C7.6961 2.91667 8.33313 3.19929 8.78915 3.65531C9.24516 4.11132 9.52778 4.74835 9.52778 5.44444C9.52778 6.14054 9.24516 6.77757 8.78915 7.23358C8.46435 7.55838 8.04772 7.79521 7.58333 7.90462V8.16667C7.58333 8.48883 7.32217 8.75 7 8.75C6.67783 8.75 6.41667 8.48883 6.41667 8.16667V7.38889C6.41667 7.06672 6.67783 6.80556 7 6.80556C7.37724 6.80556 7.7202 6.65261 7.96419 6.40862C8.20817 6.16464 8.36111 5.82169 8.36111 5.44444C8.36111 5.0672 8.20817 4.72425 7.96419 4.48027C7.7202 4.23628 7.37724 4.08333 7 4.08333C6.62276 4.08333 6.2798 4.23628 6.03581 4.48027C5.79183 4.72425 5.63889 5.0672 5.63889 5.44444C5.63889 5.76661 5.37772 6.02778 5.05556 6.02778C4.73339 6.02778 4.47222 5.76661 4.47222 5.44444C4.47222 4.74835 4.75484 4.11132 5.21085 3.65531ZM6.22222 10.3056C6.22222 10.7333 6.57222 11.0833 7 11.0833C7.42778 11.0833 7.77778 10.7333 7.77778 10.3056C7.77778 9.87778 7.42778 9.52778 7 9.52778C6.57222 9.52778 6.22222 9.87778 6.22222 10.3056Z" fill="black"/>
</g>
</g>
<defs>
<clipPath id="clip0_156_4686">
<rect width="14" height="14" fill="white"/>
</clipPath>
</defs>
</svg>

<svg xmlns="http://www.w3.org/2000/svg" fill="none" viewBox="0 0 14 14"><g clip-path="url(#a)"><path fill="#000" fill-rule="evenodd" d="M7 1.167a5.833 5.833 0 1 0 0 11.666A5.833 5.833 0 0 0 7 1.167M0 7a7 7 0 1 1 14 0A7 7 0 0 1 0 7m5.21-3.345A2.53 2.53 0 0 1 7 2.917a2.53 2.53 0 0 1 1.79.738 2.53 2.53 0 0 1 .738 1.79 2.53 2.53 0 0 1-.739 1.789 2.53 2.53 0 0 1-1.206.67v.263a.583.583 0 1 1-1.166 0v-.778c0-.322.26-.583.583-.583.377 0 .72-.153.964-.397s.397-.587.397-.965c0-.377-.153-.72-.397-.964A1.36 1.36 0 0 0 7 4.083c-.377 0-.72.153-.964.397a1.36 1.36 0 0 0-.397.964.583.583 0 1 1-1.167 0c0-.696.283-1.333.739-1.789m1.012 6.65c0 .428.35.778.778.778a.78.78 0 0 0 .778-.777A.78.78 0 0 0 7 9.528a.78.78 0 0 0-.778.778" clip-rule="evenodd"/></g><defs><clipPath id="a"><path fill="#fff" d="M0 0h14v14H0z"/></clipPath></defs></svg>
